icons/magnifier-plus.svg

<svg xmlns="http://www.w3.org/2000/svg" width="24" height="24" viewBox="0 0 24 24">
  <path d="M10,2 C14.418278,2 18,5.581722 18,10 C18,11.8482015 17.3732643,13.550021 16.3207287,14.9045228 L21.7071068,20.2928932 C22.0976311,20.6834175 22.0976311,21.3165825 21.7071068,21.7071068 C21.3466228,22.0675907 20.7793918,22.0953203 20.3871006,21.7902954 L20.2928932,21.7071068 L14.9045228,16.3207287 C13.550021,17.3732643 11.8482015,18 10,18 C5.581722,18 2,14.418278 2,10 C2,5.581722 5.581722,2 10,2 Z M10,4 C6.6862915,4 4,6.6862915 4,10 C4,13.3137085 6.6862915,16 10,16 C13.3137085,16 16,13.3137085 16,10 C16,6.6862915 13.3137085,4 10,4 Z M10,6 C10.5128358,6 10.9355072,6.38604019 10.9932723,6.88337887 L11,7 L10.999,9 L13,9 C13.5522847,9 14,9.44771525 14,10 C14,10.5128358 13.6139598,10.9355072 13.1166211,10.9932723 L13,11 L10.999,11 L11,13 C11,13.5522847 10.5522847,14 10,14 C9.48716416,14 9.06449284,13.6139598 9.00672773,13.1166211 L9,13 L8.999,11 L7,11 C6.44771525,11 6,10.5522847 6,10 C6,9.48716416 6.38604019,9.06449284 6.88337887,9.00672773 L7,9 L8.999,9 L9,7 C9,6.44771525 9.44771525,6 10,6 Z"/>
</svg>

<svg xmlns="http://www.w3.org/2000/svg" viewBox="0 0 24 24">
  <path d="M10 2a8 8 0 0 1 6.32 12.9l5.39 5.4a1 1 0 0 1-1.32 1.49l-.1-.08-5.39-5.39A8 8 0 1 1 10 2zm0 2a6 6 0 1 0 0 12 6 6 0 0 0 0-12zm0 2a1 1 0 0 1 1 .88V9h2a1 1 0 0 1 .12 2H11v2a1 1 0 0 1-2 .12V11H7a1 1 0 0 1-.12-2H9V7a1 1 0 0 1 1-1z"/>
</svg>
